X: 19914
T: Jig In The Castle
R: jig
M: 6/8
K: Adorian
|:AEA eBe|dBG BdB|AEA eBe|dBG BAG|
AEA eBe|dBG B/c/de|a2g ede|1 g2f fdB:|2 g2f eBe||
|:a2a bag|eag ede|a2a bag|eag eBe|
a2a bag|eag ede|g2a geg|1 agf eBe:|2 a2g fdB||

